storage/app/icons/phosphoricons/duotone/subtitles-slash-duotone.svg

<svg xmlns="http://www.w3.org/2000/svg" fill="currentColor" viewBox="0 0 256 256"><path d="M232 64v128a8 8 0 0 1-8 8H32a8 8 0 0 1-8-8V64a8 8 0 0 1 8-8h192a8 8 0 0 1 8 8" opacity=".2"/><path d="M48 136a8 8 0 0 1 8-8h16a8 8 0 0 1 0 16H56a8 8 0 0 1-8-8m165.92 74.62a8 8 0 1 1-11.84 10.76L189.92 208H32a16 16 0 0 1-16-16V64a16 16 0 0 1 16-16h12.46l-2.38-2.62a8 8 0 1 1 11.84-10.76ZM175.37 192l-14.55-16H56a8 8 0 0 1 0-16h90.28l-14.55-16H104a8 8 0 0 1 0-16h13.19L59 64H32v128ZM200 144a8 8 0 0 0 0-16h-21.48a8 8 0 1 0 0 16Zm24-96H105.79a8 8 0 0 0 0 16H224v130.83a8 8 0 1 0 16 0V64a16 16 0 0 0-16-16"/></svg>

<svg xmlns="http://www.w3.org/2000/svg" viewBox="0 0 256 256" fill="currentColor"><path d="M232,64V192a8,8,0,0,1-8,8H32a8,8,0,0,1-8-8V64a8,8,0,0,1,8-8H224A8,8,0,0,1,232,64Z" opacity="0.2"/><path d="M48,136a8,8,0,0,1,8-8H72a8,8,0,0,1,0,16H56A8,8,0,0,1,48,136Zm165.92,74.62a8,8,0,1,1-11.84,10.76L189.92,208H32a16,16,0,0,1-16-16V64A16,16,0,0,1,32,48H44.46l-2.38-2.62A8,8,0,1,1,53.92,34.62ZM175.37,192l-14.55-16H56a8,8,0,0,1,0-16h90.28l-14.55-16H104a8,8,0,0,1,0-16h13.19L59,64H32V192ZM200,144a8,8,0,0,0,0-16H178.52a8,8,0,1,0,0,16Zm24-96H105.79a8,8,0,0,0,0,16H224V194.83a8,8,0,1,0,16,0V64A16,16,0,0,0,224,48Z"/></svg>
